projects/vfh1/img/icons/adv-3.svg

<svg width="26" height="26" viewBox="0 0 26 26" fill="none" xmlns="http://www.w3.org/2000/svg">
<path d="M21.918 1.73333H20.8728V0.866667C20.8728 0.636812 20.7815 0.416372 20.6189 0.253841C20.4564 0.0913092 20.236 0 20.0061 0C19.7763 0 19.5558 0.0913092 19.3933 0.253841C19.2308 0.416372 19.1395 0.636812 19.1395 0.866667V1.73333H13.9395V0.866667C13.9395 0.636812 13.8481 0.416372 13.6856 0.253841C13.5231 0.0913092 13.3026 0 13.0728 0C12.8429 0 12.6225 0.0913092 12.46 0.253841C12.2974 0.416372 12.2061 0.636812 12.2061 0.866667V1.73333H7.00612V0.866667C7.00612 0.636812 6.91481 0.416372 6.75228 0.253841C6.58975 0.0913092 6.36931 0 6.13945 0C5.9096 0 5.68916 0.0913092 5.52663 0.253841C5.3641 0.416372 5.27279 0.636812 5.27279 0.866667V1.73333H4.22759C3.35594 1.73471 2.52039 2.08158 1.90404 2.69792C1.2877 3.31427 0.940828 4.14982 0.939453 5.02147V22.7119C0.940828 23.5835 1.2877 24.4191 1.90404 25.0354C2.52039 25.6518 3.35594 25.9986 4.22759 26H21.918C22.7896 25.9986 23.6252 25.6518 24.2415 25.0354C24.8579 24.4191 25.2047 23.5835 25.2061 22.7119V5.02147C25.2047 4.14982 24.8579 3.31427 24.2415 2.69792C23.6252 2.08158 22.7896 1.73471 21.918 1.73333ZM11.0847 17.0794L8.48465 19.6794C8.32213 19.8419 8.10173 19.9331 7.87192 19.9331C7.64211 19.9331 7.42171 19.8419 7.25919 19.6794L5.52585 17.9461C5.44308 17.8661 5.37705 17.7705 5.33163 17.6648C5.28621 17.559 5.2623 17.4453 5.2613 17.3302C5.2603 17.2151 5.28223 17.101 5.32581 16.9945C5.36938 16.888 5.43374 16.7912 5.51511 16.7099C5.59648 16.6285 5.69325 16.5641 5.79976 16.5206C5.90627 16.477 6.02039 16.455 6.13547 16.456C6.25054 16.457 6.36427 16.481 6.47 16.5264C6.57574 16.5718 6.67137 16.6378 6.75132 16.7206L7.87279 17.8412L9.86005 15.8539C10.0235 15.6961 10.2424 15.6087 10.4697 15.6107C10.6969 15.6127 10.9143 15.7038 11.075 15.8645C11.2357 16.0252 11.3268 16.2425 11.3288 16.4698C11.3307 16.697 11.2425 16.9159 11.0847 17.0794ZM11.0847 9.2794L8.48465 11.8794C8.32213 12.0419 8.10173 12.1331 7.87192 12.1331C7.64211 12.1331 7.42171 12.0419 7.25919 11.8794L5.52585 10.1461C5.44308 10.0661 5.37705 9.97049 5.33163 9.86475C5.28621 9.75901 5.2623 9.64529 5.2613 9.53021C5.2603 9.41514 5.28223 9.30102 5.32581 9.19451C5.36938 9.088 5.43374 8.99123 5.51511 8.90986C5.59648 8.82848 5.69325 8.76413 5.79976 8.72056C5.90627 8.67698 6.02039 8.65505 6.13547 8.65605C6.25054 8.65705 6.36427 8.68096 6.47 8.72638C6.57574 8.7718 6.67137 8.83782 6.75132 8.9206L7.87279 10.0412L9.86005 8.05393C10.0235 7.89606 10.2424 7.80871 10.4697 7.81068C10.6969 7.81266 10.9143 7.9038 11.075 8.06449C11.2357 8.22518 11.3268 8.44255 11.3288 8.66979C11.3307 8.89702 11.2425 9.11594 11.0847 9.2794ZM20.0061 19.0667H13.9395C13.7096 19.0667 13.4892 18.9754 13.3266 18.8128C13.1641 18.6503 13.0728 18.4299 13.0728 18.2C13.0728 17.9701 13.1641 17.7497 13.3266 17.5872C13.4892 17.4246 13.7096 17.3333 13.9395 17.3333H20.0061C20.236 17.3333 20.4564 17.4246 20.6189 17.5872C20.7815 17.7497 20.8728 17.9701 20.8728 18.2C20.8728 18.4299 20.7815 18.6503 20.6189 18.8128C20.4564 18.9754 20.236 19.0667 20.0061 19.0667ZM20.0061 11.2667H13.9395C13.7096 11.2667 13.4892 11.1754 13.3266 11.0128C13.1641 10.8503 13.0728 10.6299 13.0728 10.4C13.0728 10.1701 13.1641 9.94971 13.3266 9.78717C13.4892 9.62464 13.7096 9.53333 13.9395 9.53333H20.0061C20.236 9.53333 20.4564 9.62464 20.6189 9.78717C20.7815 9.94971 20.8728 10.1701 20.8728 10.4C20.8728 10.6299 20.7815 10.8503 20.6189 11.0128C20.4564 11.1754 20.236 11.2667 20.0061 11.2667Z" fill="#42474D"/>
</svg>

<svg width="26" height="26" fill="none" xmlns="http://www.w3.org/2000/svg"><path d="M21.918 1.733h-1.045V.867a.866.866 0 10-1.733 0v.866h-5.2V.867a.867.867 0 00-1.734 0v.866h-5.2V.867a.867.867 0 00-1.733 0v.866H4.228A3.293 3.293 0 00.939 5.021v17.69A3.293 3.293 0 004.228 26h17.69a3.293 3.293 0 003.288-3.288V5.022a3.293 3.293 0 00-3.288-3.289zM11.085 17.08l-2.6 2.6a.866.866 0 01-1.226 0l-1.733-1.733a.868.868 0 111.225-1.225l1.122 1.12 1.987-1.987a.867.867 0 011.225 1.225zm0-7.8l-2.6 2.6a.866.866 0 01-1.226 0l-1.733-1.733A.867.867 0 116.75 8.921l1.122 1.12L9.86 8.054a.867.867 0 011.225 1.225zm8.921 9.788H13.94a.867.867 0 110-1.734h6.066a.866.866 0 110 1.734zm0-7.8H13.94a.867.867 0 110-1.734h6.066a.866.866 0 110 1.734z" fill="#42474D"/></svg>
